X: 285
T: John Riley the Shepherd
B: canberra pickers and fiddlers
B: tunes
L:1/8
Q: 1/4=100
K:Em
V:1 
d|:"Am" v[e2 e2] ud2 ve2 uJg2 |"G" veudv(BA) uG2 vAuG |"G" v(AB2) u(d B)v(AG)uF |"Em" v(DE3)u[E2G,2], (Jve2 |
"Am" [e2 e2]) ud2 ve2 ug2 |"G" veudv(BA) uG2 u(AuG) | "G" v(AB2) ud v(BAG2) |1 "Am" u([JA4 A4] [A3 A3]) [de]:|
|2"Am" u([JA4 A4] [A3 A3]) v([D/ A/](B/)||"Em"B2) u(BA) vBuAv(GF) |"Em" uE2u[E4G,4]v(A2|"Em"JB2) u(Bd) v(BA)v(GF)|
"Em" uE2u[E4G,4]v(AB) |"Em" vB2 u[B2 G2] vBuAv(GF) | "Em" uE2uE2 vBuAvBud |"Em" ve ud3 vBuA vG2 | "Am" uA8 ||
% abcbook-tune_id 63da593451395ddffa71ff00
% abcbook-tune_composer_id 
% abcbook-link-0 https://www.youtube.com/watch?v=7kOoGe3kk-8
% abcbook-boost 0
% abcbook-difficulty 0
% abcbook-tags canberra pickers and fiddlers,old time tunes,© free
% abcbook-tablature 
% abcbook-transpose 
% abcbook-tuning GDAD
% abcbook-lastupdated 1675254068533
% abcbook-src-url https://tunebook.net/scrape/tunes.abc
% abcbook-soundfonts 
% abcbook-repeats 1
%%gchordfont "itim-music,Itim" 20

